X:1
T:Morrison's
M:6/8
K:Edor
"Em"E3 BEB|EBE "D"AFD|"Em"E3 BEB|"D"dcB AGF|
"Em"E3 BEB|EBE "D"AFD|"G"G2G FGA|"D"dAG FED:|
"Em"Bee fee|aee "D"fed|"Em"Bee fee|"D"fag fed|
"Em"Bee fee|aee "D"fed|"Em"edc d2A|"Bm"BAG F3|
"Em"Bee fee|aee "D"fed|"Em"Bee fee|"D"faf def|
"C"g2g gfe|"G"def g2 d|"D"edc d2 A|"B7"BAG F3||
